material/.icons/material/tag-minus-outline.svg

<svg xmlns="http://www.w3.org/2000/svg" viewBox="0 0 24 24"><path d="M6.5 5A1.5 1.5 0 108 6.5 1.5 1.5 0 006.5 5m0 0A1.5 1.5 0 108 6.5 1.5 1.5 0 006.5 5m14.91 6.58l-9-9A2 2 0 0011 2H4a2 2 0 00-2 2v7a2 2 0 00.59 1.42L5.17 15H8l-4-4V4h7l9 9-7 7h-1v1.73a2 2 0 001 .27 2 2 0 001.41-.59l7-7A2 2 0 0022 13a2 2 0 00-.59-1.42M5 6.5A1.5 1.5 0 106.5 5 1.5 1.5 0 005 6.5M10 19H2v-2h8z"/></svg>

<?xml version="1.0" encoding="UTF-8"?><!DOCTYPE svg PUBLIC "-//W3C//DTD SVG 1.1//EN" "http://www.w3.org/Graphics/SVG/1.1/DTD/svg11.dtd"><svg xmlns="http://www.w3.org/2000/svg" xmlns:xlink="http://www.w3.org/1999/xlink" version="1.1" id="mdi-tag-minus-outline" width="24" height="24" viewBox="0 0 24 24"><path d="M6.5 5A1.5 1.5 0 1 0 8 6.5A1.5 1.5 0 0 0 6.5 5M6.5 5A1.5 1.5 0 1 0 8 6.5A1.5 1.5 0 0 0 6.5 5M21.41 11.58L12.41 2.58A2 2 0 0 0 11 2H4A2 2 0 0 0 2 4V11A2 2 0 0 0 2.59 12.42L5.17 15H8L4 11V4H11L20 13L13 20H12V21.73A2 2 0 0 0 13 22A2 2 0 0 0 14.41 21.41L21.41 14.41A2 2 0 0 0 22 13A2 2 0 0 0 21.41 11.58M5 6.5A1.5 1.5 0 1 0 6.5 5A1.5 1.5 0 0 0 5 6.5M10 19H2V17H10Z" /></svg>
